X:1
T: Augusta Heritage Reel
N:
C:Larry Unger and Eden MacAdam-Somer
S:Tune is "Elkins" by
A:
O:
R:
M:4/4
K:A
I:speed 200
%W: A1
% voice 1 (1 lines, 40 notes)
K:A
M:4/4
L:1/16
A6 B2 c4 e4 |e2 f2 e2 c2 B2 A6 |a6 b2 a2 f2 e4 |e2 f2 e2 c2 B4 c2 B2 |A6 B2 c4 e4 |e2 f2 e2 c2 B2 A6 |a6 f2 e4 c2 A2 |B2 A6 A8 |
%W: A2
% voice 1 (1 lines, 40 notes)
A6 B2 c4 e4 |e2 f2 e2 c2 B2 A6 |a6 b2 a2 f2 e4 |e2 f2 e2 c2 B4 c2 B2 |A6 B2 c4 e4 |e2 f2 e2 c2 B2 A6 |a6 f2 e4 c2 A2 |B2 A6 A8 |
%W: B1
% voice 1 (1 lines, 35 notes)
a8 g8 |f2 g2 f4 e8 |A6 B2 c4 e4 |e2 f2 e2 c2 B4 A2 B2 |c6 A2 B4 c2 B2 |A2 B2 A2 F2 E8 |F4 A4 A4 B2 c2 |B2 A6 A8 |
%W: B2
% voice 1 (1 lines, 35 notes)
a8 g8 |f2 g2 f4 e8 |A6 B2 c4 e4 |e2 f2 e2 c2 B4 A2 B2 |c6 A2 B4 c2 B2 |A2 B2 A2 F2 E8 |F4 A4 A4 B2 c2 |B2 A6 A8 ||
